!!!COM: Anon.
!!!OTL: Salvatoris Hodie
!!!SCA: Folio 201-202'
!!!YOR: from 'Thirty-Five Conductus for Two and Three Voices', pp.1-7
!!!YOR: edited by Janet Knapp, Collegium Musicum No. 6, Yale University (1965)
!!!YOR: from the School of Notre Dame; circa 1170-1240
!!!YOO: Yale University
!!!YOY: 1965
**kern	**kern	**kern
*M6/8	*M6/8	*M6/8
=1	=1	=1
4.D	8A	8d
.	8A	8d
.	8G	8c
4.A	8F	4.d
.	8E	.
.	8D	.
=2	=2	=2
4.G	4.C	16c
.	.	16B
.	.	8A
.	.	8G
4.F	4.D	4.A
=3	=3	=3
4E	4E	4G
8D	8F	8F
4.C	4.E	4.G
=4	=4	=4
4.D	4.D	4.A
4.r	4.r	4.r
=5	=5	=5
4F	4A	4F
8r	8r	8r
4E	4G	4G
8r	8r	8A
=6	=6	=6
4F	4F	4c
8G	8D	8r
8F	4F	4c
8E	.	.
8D	8G	8d
=7	=7	=7
4.E	4.A	4e
.	.	8f
4E	4A	8e
.	.	8d
8r	8r	8e
=8	=8	=8
4E	4A	4A
8D	8r	8r
4C	4G	4G
8D	8F	8A
=9	=9	=9
4E	8E	8c
.	8D	8d
8D	8C	8c
4D	4F	8B
.	.	8A
8C	8E	8G
=10	=10	=10
4.D	4.D	4.A
4.r	4.r	4.r
=11	=11	=11
4.C	8F	4.c
.	8F	.
.	8E	.
4D	4D	4d
8r	8r	8r
=12	=12	=12
4.E	8E	8e
.	8E	8e
.	8D	8d
4.F	4.C	8c
.	.	8c
.	.	8B
=13	=13	=13
4E	4G	8A
.	.	8G
8D	8F	8A
4C	4E	4G
8r	8r	8r
=14	=14	=14
4.G	4.D	4d
.	.	8d
4.F	4.C	4c
.	.	8c
=15	=15	=15
4A	4.D	8B
.	.	8A
8G	.	8G
4F	4C	4c
8r	8r	8r
=16	=16	=16
4E	4A	4e
8D	8G	8d
4F	8F	4c
.	8E	.
8G	8D	8c
=17	=17	=17
8F	4A	8B
8E	.	8A
8D	8A	8G
4C	4G	4c
8r	8F	8r
=18	=18	=18
4G	4.D	4d
8F	.	8d
4E	4C	4c
8D	8r	8c
=19	=19	=19
4F	4A	8B
.	.	8A
8E	8A	8B
4D	4G	4G
8r	8F	8A
=20	=20	=20
2.C	4.E	8c
.	.	16c
.	.	16B
.	.	8A
.	4.E	4.G
=21	=21	=21
4.D	4.D	4.A
4.r	4.r	4.r
=22	=22	=22
4.G	4.d	4.d
4A	4.d	8c
.	.	8B
8B	.	8A
=23	=23	=23
4c	4.c	4G
8A	.	8F
4A	4d	4E
8r	8e	8D
=24	=24	=24
4.G	4.d	4.G
4G	4d	4A
8F	8c	8B
=25	=25	=25
4E	4e	4B
8r	8r	8c
4E	4B	4r
8F	8r	8B
=26	=26	=26
4A	4A	4r
8A	8r	8A
4G	[4.G	[4.c
8F	.	.
=27	=27	=27
4.E	4.G]	4.c]
4D	4A	4d
8r	8r	8r
=28	=28	=28
4.c	4.G	4.c
4c	4.A	4B
8c	.	8A
=29	=29	=29
4.B	4.B	4.B
4B	4c	4A
8B	8B	8G
=30	=30	=30
4A	4.A	4.A
8B	.	.
8c	4B	4B
8B	.	.
8A	8c	8A
=31	=31	=31
4.G	4.d	4.G
4.r	4.r	4.r
=32	=32	=32
4.A	4.c	4.c
4.G	4.B	4.d
=33	=33	=33
4A	4c	8c
.	.	8B
8G	8B	8A
4.F	4.A	4.c
=34	=34	=34
4.E	4.G	4.B
4E	4G	4B
8E	8G	8B
=35	=35	=35
4.D	4.A	4.A
4D	4A	4A
8E	8G	8B
=36	=36	=36
4.C	4.F	4.c
4C	4F	4c
8D	8G	8d
=37	=37	=37
4.F	4.F	4.c
4F	4F	4c
8G	8E	8B
=38	=38	=38
4A	4.D	8d
.	.	8c
8G	.	8B
8F	4D	4.A
8E	.	.
8D	8E	.
=39	=39	=39
4.E	4.C	4.G
4.r	4.r	4.r
=40	=40	=40
4.C	4.c	4.c
4C	4c	4c
8D	8d	8d
=41	=41	=41
4.F	4.c	4.f
4F	4.r	4e
8G	.	8d
=42	=42	=42
4.F	4.c	4.c
4F	4.r	4c
8G	.	8A
=43	=43	=43
4.F	4c	4.c
.	8B	.
4F	4A	4.r
8G	8G	.
=44	=44	=44
4.A	4F	4.c
.	8E	.
4B-	4D	4.r
8G	8C	.
=45	=45	=45
4.A	4.D	4.d
4B-	4.r	4d
8G	.	8c
=46	=46	=46
4.A	4.D	4.d
4G	4.r	4d
8A	.	8B
=47	=47	=47
4.c	4.C	4.c
4c	4.r	4c
8d	.	8B
=48	=48	=48
4.c	4.C	4.c
4c	4.r	4c
8d	.	8A
=49	=49	=49
4.c	4.F	4.c
4c	4F	4.r
8A	8A	.
=50	=50	=50
4.F	4.c	4.c
4F	4c	4c
8G	8B	8d
=51	=51	=51
4F	4A	4.f
8E	8G	.
4F	4F	4e
8D	8A	8d
=52	=52	=52
4.C	4.G	4c
.	.	8B
4.D	4.F	4A
.	.	8B
=53	=53	=53
4.C	4.G	4.c
4.r	4.r	4.r
=54	=54	=54
4.F	4.F	4.c
4F	4F	8d
.	.	8c
8E	8G	8B
=55	=55	=55
4.D	4.A	4.A
4.r	4.r	4.G
=56	=56	=56
[2.C	16c	4.c
.	16B	.
.	16A	.
.	16G	.
.	16F	.
.	16E	.
.	4.D	4d
.	.	8e
=57	=57	=57
2.C]	2.G	4d
.	.	8d
.	.	4.c
=58	=58	=58
4.D;	8G	8c
.	4A;	4d;
4.r	4.r	4.r
=59	=59	=59
4.A	4A	4A
.	8G	8G
4.r	4F	4A
.	8E	8B-
=60	=60	=60
4A	4.F	4.A
8G	.	.
4A	4.r	4.F
8B-	.	.
=61	=61	=61
4.A	4A	4A
.	8G	8G
4.r	4F	4A
.	8E	8B-
=62	=62	=62
4A	4.D	4.A
8G	.	.
4A	4.r	4.r
8B-	.	.
=63	=63	=63
4.A	4.A	4.A
4.F	4.r	4B-
.	.	8c
=64	=64	=64
8G	4.G	4.d
8F	.	.
8E	.	.
4.D	4.A	4.A
=65	=65	=65
4.F	4.F	4c
.	.	8d
4.A	4.E	4e
.	.	8d
=66	=66	=66
4G	4.F	4.c
8B-	.	.
4.A	4D	4.d
.	8r	.
=67	=67	=67
4.F	4.F	4c
.	.	8A
8G	4.G	4c
8F	.	.
8E	.	8A
=68	=68	=68
4.D	4.A	4.c
4D	4A	4d
8r	8r	8r
=69	=69	=69
4.F	4.A	4.c
4E	4Bn	4Bn
8F	8A	8c
=70	=70	=70
4.G	4.G	4.d
4F	4A	4d
8D	8G	8r
=71	=71	=71
8F	4.F	4c
8E	.	.
8D	.	8d
4.C	4E	4e
.	8F	8d
=72	=72	=72
4.C	4.G	4.c
4.r	4.r	4c
.	.	8r
=73	=73	=73
4.F	4.c	4.c
4.G	4.B-	4.d
=74	=74	=74
4.A	4.A	4.c
4.B-	4.G	4.d
=75	=75	=75
4.c	4.F	4.f
4.d	4.F	4.f
=76	=76	=76
4c	4F	4f
8A	8r	8d
4F	4.c	4r
8G	.	8c
=77	=77	=77
4F	4.B-	4r
8B-	.	8d
8A	4A	4c
8G	.	.
8A	8r	8d
=78	=78	=78
4.F	4.c	4.c
4G	4.B-	4d
8F	.	8f
=79	=79	=79
4A	4.A	4e
8G	.	8d
4F	4.G	4.c
8E	.	.
=80	=80	=80
4.D	4.A	4.d
4.r	4.r	4.r
=81	=81	=81
4.F	4.f	4.c
8G	8e	8Bn
8G	8e	8A
8F	8d	8G
=82	=82	=82
4E	4.d	8d
.	.	8d
8D	.	8e
4.F	4.c	16f
.	.	16e
.	.	8d
.	.	8c
=83	=83	=83
4E	8d	4Bn
.	16e	.
.	16d	.
8D	16c	8A
.	16B-	.
4D	4A	4A
8E	8Bn	8B
=84	=84	=84
4.C	4.c	4.G
4.r	4.r	4.r
=85	=85	=85
4.F	4.f	4.c
4.G	4.f	4.B-
=86	=86	=86
4.A	4.e	4.A
4.B-	4.d	4.d
=87	=87	=87
4.c	4c	4.c
.	8B-	.
4.d	4.G	4d
.	.	8e
=88	=88	=88
4.c	4.F	4.f
4.r	4.r	4.r
=89	=89	=89
4c	4G	4c
8r	8E	8d
4c	4F	4f
8B-	8G	8d
=90	=90	=90
4A	4A	4e
8G	8B-	8f
4A	4A	4e
8r	8r	8r
=91	=91	=91
4c	4A	4c
8r	8G	8d
4c	4A	4c
8B-	8F	8d
=92	=92	=92
4A	4c	4c
8F	8c	8f
4G	4d	4d
8r	8d	8r
=93	=93	=93
4c	4c	4c
8c	8r	8d
4c	4c	4c
8B-	8r	8f
=94	=94	=94
4A	4d	4d
8G	8c	8c
4A	4A	4e
8r	8G	8r
=95	=95	=95
4c	4F	4f
8c	8r	8e
4c	4G	4d
8B-	8r	8f
=96	=96	=96
4A	4.A	4e
8F	.	8c
4G	4.r	4.d
8A	.	.
=97	=97	=97
4.G	4.Bn	4.e
4F	4c	4f
8r	8r	8r
=98	=98	=98
4.G	8B-	8d
.	8B-	8d
.	8A	8c
4A	8A	8c
.	8A	8B-
8B-	8G	8A
=99	=99	=99
8A	8F	4.d
8A	8E	.
8G	8D	.
8F	4.F	4c
8E	.	.
8D	.	8d
=100	=100	=100
2.C	8G	8e
.	8A	8e
.	8G	8d
.	4.E	4.c
=101	=101	=101
4.D	4.D	4.d
4.r	4.r	4.r
=102	=102	=102
4.Fn	4.A	4.A
4.E	4.r	4B
.	.	8c
=103	=103	=103
4.D	4A	4.d
.	8G	.
4.r	4F	4.r
.	8E	.
=104	=104	=104
4F	4.D	4A
8G	.	8B
8F	4.r	4A
8E	.	.
8D	.	8G
=105	=105	=105
4.C	4F	4.c
.	8G	.
4.r	4A	4.r
.	8G	.
=106	=106	=106
4.F	4.F	4.c
4E	4.r	4.d
8D	.	.
=107	=107	=107
4.F	4.A	4.c
4G	4G	4c
8r	8r	8A
=108	=108	=108
4F	4c	4.c
8E	8B	.
4D	4A	4d
8C	8G	8r
=109	=109	=109
4.D	4.F	4c
.	.	8d
4E	4E	4e
8r	8r	8d
=110	=110	=110
4F	4.D	4c
8G	.	8B
4F	4.C	4c
8E	.	8d
=111	=111	=111
4.D	4.D	8c
.	.	8B
.	.	8A
4.C	4.E	4.G
=112	=112	=112
4.D	4.D	4.A
4.r	4.r	4.r
=113	=113	=113
4.AA	4e	4.A
.	8d	.
4.C	4c	4.G
.	8B	.
=114	=114	=114
4.D	4.A	4.d
4D	4A	4d
8C	8G	8c
=115	=115	=115
4.F	4.c	4.f
4F	4d	8e
.	.	8d
8G	8B	8c
=116	=116	=116
4.A	4.A	4.A
4A	4A	4.r
8B	8G	.
=117	=117	=117
16c	4.F	4.f
16B	.	.
8A	.	.
8G	.	.
4.F	4F	4e
.	8G	8d
=118	=118	=118
4.G	4.B	4f
.	.	8e
4A	4c	4d
8B	8A	8e
=119	=119	=119
16A	4.F	4d
16G	.	.
8F	.	.
8E	.	8d
4.D	8G	4.c
.	8A	.
.	8B-	.
=120	=120	=120
4.D	4.A	4.d
4.r	4.r	4.r
=121	=121	=121
4.B	4.d	4.G
4B	4d	4G
8G	8d	8G
=122	=122	=122
4.A	4.c	4.F
4A	4c	4F
8D	8c	8G
=123	=123	=123
4.F	4.B-	4.B-
4F	4B-	4B-
8G	8B-	8G
=124	=124	=124
4.A	4.A	4.A
4A	4A	4A
8B-	8B-	8G
=125	=125	=125
4.c	4.G	4.G
4c	4G	4.r
8c	8A	.
=126	=126	=126
4.B-	4.B-	4.B-
4B-	4A	4.r
8B-	8G	.
=127	=127	=127
4.A	4.F	4.c
4A	4.F	4.r
8A	.	.
=128	=128	=128
4.G	4.G	4.d
4.r	4.r	4.r
=129	=129	=129
4G	4d	4d
8A	8e	8c
4.B-	4d	4d
.	8c	8e
=130	=130	=130
4c	4c	4.c
8d	8B-	.
4c	4c	4c
8A	8d	8d
=131	=131	=131
4.F	4.c	4f
.	.	8e
4.G	4.B-	4.d
=132	=132	=132
4A	4A	8e
.	.	8d
8B-	8G	8f
4A	4A	4e
8G	8G	8d
=133	=133	=133
4F	4A	4d
8E	8B-	8c
4D	4A	4d
8r	8r	8r
=134	=134	=134
4.C	4.G	4.c
4C	4G	4c
8D	8A	8d
=135	=135	=135
4.F	4.F	4.c
4F	4F	8B-
.	.	8A
8G	8E	8G
=136	=136	=136
4.A	4D	4.d
.	8C	.
4B-	4D	4e-
8G	8E-	8c
=137	=137	=137
4.A	4.D	4.d
4.r	4.r	4.r
=138	=138	=138
4B-	4.F	4.f
8A	.	.
4.G	4G	8e
.	.	8d
.	8F	8c
=139	=139	=139
4A	4F	4.d
8G	8D	.
4F	4.C	4c
8E	.	8B-
=140	=140	=140
4.D	4.F	4.A
4C	4A	4c
8D	8G	8d
=141	=141	=141
4.F	4.F	4.c
4F	4E	4.r
8G	8E	.
=142	=142	=142
4.F	4.F	4.c
4F	4F	4c
8D	8A	8d
=143	=143	=143
4.F	4F	4.c
.	8D	.
4E	4F	4B
8C	8E	8c
=144	=144	=144
4.D	4.D	4.A
4.r	4.r	4c
.	.	8d
=145	=145	=145
4C	4G	4.c
8D	8B-	.
4.F	4A	4.r
.	8F	.
=146	=146	=146
4F	8F	4.c
.	8E	.
8G	8D	.
4F	4C	4d
8r	8r	8e
=147	=147	=147
4F	4D	4d
8G	8C	8d
4.A	4.D	4.c
=148	=148	=148
4A	4D	4.d
8G	8F	.
4A	4D	4.r
8r	8r	.
=149	=149	=149
4A	4.D	4d
8F	.	8e
4G	4.F	4c
8F	.	8c
=150	=150	=150
8E	4.G	4.B
8D	.	.
8C	.	.
4D	4A	4A
8r	8r	8r
=151	=151	=151
4F	4c	4A
8G	8B-	8G
4.A	4.A	4A
.	.	8B
=152	=152	=152
4B	4A	4.c
8G	8F	.
4A	4D	4d
8r	8r	8r
=153	=153	=153
4G	4F	4c
8B-	8F	8A
4A	4F	4c
8F	8F	8A
=154	=154	=154
4.G	8G	4.c
.	8F	.
.	8E	.
4A	4D	4d
8r	8r	8r
=155	=155	=155
4F	4F	4c
8G	8E	8A
4.A	4F	4c
.	8F	8A
=156	=156	=156
4B-	8G	4.c
.	8F	.
8G	8E	.
4A	4D	4d
8r	8r	8r
=157	=157	=157
4G	4D	4d
8B-	8F	8c
4A	4D	4d
8F	8C	8r
=158	=158	=158
4.G	4.D	4c
.	.	8d
4F	4F	4c
8r	8r	8r
=159	=159	=159
4F	4f	4.c
8A	8e	.
4.c	4.c	4c
.	.	8r
=160	=160	=160
4d	4c	4c
8c	8A	8d
4A	4c	4c
8r	8r	8r
=161	=161	=161
4F	4c	4c
8G	8d	8A
4F	4c	4c
8D	8A	8d
=162	=162	=162
4.D	4.A	4c
.	.	8A
4C	4G	4c
8r	8r	8r
=163	=163	=163
4C	4A	4c
8D	8G	8d
4.F	4F	4c
.	8r	8B
=164	=164	=164
4F	8F	4c
.	8E	.
8G	8D	8d
4F	4C	4c
8r	8r	8r
=165	=165	=165
4G	4D	4d
8B	8C	8e
4A	4D	4d
8G	8r	8d
=166	=166	=166
4F	4F	4.c
8E	8G	.
4D	8A	4d
.	8A	.
8r	8B	8r
=167	=167	=167
[2.C	16c	8c
.	16B	.
.	16A	8B
.	16G	.
.	16F	8A
.	16E	.
.	4.D	4.G
=168	=168	=168
4.C]	4.G	4.c
[4.D	4.G	4.c
=169	=169	=169
4.D;]	4.A;	4.d;
4.r	4.r	4.r
==	==	==
*-	*-	*-
!!!ENC: David Huron
!!!YEC: Copyright 1987, David Huron
!!!EEV: 1.0
